wire-ios/Wire-iOS/Resources/Images/Images.xcassets/Contacts Outline.imageset/Contacts Outline.svg

<svg fill="none" height="22" viewBox="0 0 16 16" width="22" xmlns="http://www.w3.org/2000/svg"><path d="m11.0922 9.75v-.625c-.1156 0-.229.03207-.3274.09265zm2.9078 3.7362.2968.55c.2022-.1091.3282-.3203.3282-.55zm-12 0h-.625c0 .2297.12603.4409.3282.55zm2.90778-3.7362.32746-.53235c-.09848-.06058-.21184-.09265-.32746-.09265zm3.09221-2.375c-.34518 0-.625.27982-.625.625s.27982.625.625.625zm3.09221 3h.3335v-1.25h-.3335zm.3335 0c1.0647 0 1.9493.8864 1.9493 2h1.25c0-1.78-1.4205-3.25-3.1993-3.25zm1.9493 2v1.1112h1.25v-1.1112zm.3282.5611c-1.7027.9188-3.6428 1.4389-5.7032 1.4389v1.25c2.2736 0 4.4171-.5745 6.2968-1.5888zm-5.7032 1.4389c-2.06042 0-4.00055-.5201-5.7032-1.4389l-.5936 1.1001c1.87972 1.0143 4.02319 1.5888 6.2968 1.5888zm-5.375-.8888v-1.1112h-1.25v1.1112zm0-1.1112c0-1.1164.88253-2 1.9493-2v-1.25c-1.78061 0-3.1993 1.4669-3.1993 3.25zm1.9493-2h.33348v-1.25h-.33348zm.00603-.0926c.99816.6139 2.16902.9676 3.41967.9676v-1.25c-1.01164 0-1.95685-.28539-2.76476-.78235zm3.41967.9676c1.25065 0 2.4215-.3537 3.4197-.9676l-.6549-1.06475c-.80795.49696-1.75316.78235-2.7648.78235zm-.00001-2.625c2.25081 0 4.05361-1.85904 4.05361-4.125h-1.25c0 1.60003-1.26733 2.875-2.80361 2.875zm4.05361-4.125c0-2.26596-1.8028-4.125-4.05361-4.125v1.25c1.53628 0 2.80361 1.27497 2.80361 2.875zm-4.05361-4.125c-2.25081 0-4.05357 1.85904-4.05357 4.125h1.25c0-1.60003 1.26729-2.875 2.80357-2.875zm-4.05357 4.125c0 2.26596 1.80276 4.125 4.05357 4.125v-1.25c-1.53628 0-2.80357-1.27497-2.80357-2.875z" fill="#34373d"/></svg>

<svg width="16" height="16" viewBox="0 0 16 16" fill="none" xmlns="http://www.w3.org/2000/svg">
<path d="M11.0922 9.75V9.125C10.9766 9.125 10.8632 9.15707 10.7648 9.21765L11.0922 9.75ZM14 13.4862L14.2968 14.0362C14.499 13.9271 14.625 13.7159 14.625 13.4862H14ZM2 13.4862H1.375C1.375 13.7159 1.50103 13.9271 1.7032 14.0362L2 13.4862ZM4.90778 9.75L5.23524 9.21765C5.13676 9.15707 5.0234 9.125 4.90778 9.125V9.75ZM7.99999 7.375C7.65481 7.375 7.37499 7.65482 7.37499 8C7.37499 8.34518 7.65481 8.625 7.99999 8.625V7.375ZM11.0922 10.375H11.4257V9.125H11.0922V10.375ZM11.4257 10.375C12.4904 10.375 13.375 11.2614 13.375 12.375H14.625C14.625 10.595 13.2045 9.125 11.4257 9.125V10.375ZM13.375 12.375V13.4862H14.625V12.375H13.375ZM13.7032 12.9361C12.0005 13.8549 10.0604 14.375 8 14.375V15.625C10.2736 15.625 12.4171 15.0505 14.2968 14.0362L13.7032 12.9361ZM8 14.375C5.93958 14.375 3.99945 13.8549 2.2968 12.9361L1.7032 14.0362C3.58292 15.0505 5.72639 15.625 8 15.625V14.375ZM2.625 13.4862V12.375H1.375V13.4862H2.625ZM2.625 12.375C2.625 11.2586 3.50753 10.375 4.5743 10.375V9.125C2.79369 9.125 1.375 10.5919 1.375 12.375H2.625ZM4.5743 10.375H4.90778V9.125H4.5743V10.375ZM4.58033 10.2824C5.57849 10.8963 6.74935 11.25 8 11.25V10C6.98836 10 6.04315 9.71461 5.23524 9.21765L4.58033 10.2824ZM8 11.25C9.25065 11.25 10.4215 10.8963 11.4197 10.2824L10.7648 9.21765C9.95685 9.71461 9.01164 10 8 10V11.25ZM7.99999 8.625C10.2508 8.625 12.0536 6.76596 12.0536 4.5H10.8036C10.8036 6.10003 9.53627 7.375 7.99999 7.375V8.625ZM12.0536 4.5C12.0536 2.23404 10.2508 0.375 7.99999 0.375V1.625C9.53627 1.625 10.8036 2.89997 10.8036 4.5H12.0536ZM7.99999 0.375C5.74918 0.375 3.94642 2.23404 3.94642 4.5H5.19642C5.19642 2.89997 6.46371 1.625 7.99999 1.625V0.375ZM3.94642 4.5C3.94642 6.76596 5.74918 8.625 7.99999 8.625V7.375C6.46371 7.375 5.19642 6.10003 5.19642 4.5H3.94642Z" fill="#34373D"/>
</svg>
